azure-patterns/svg-square-circle-parallel.svg

<svg xmlns="http://www.w3.org/2000/svg" viewBox="0 0 49 49">
                                
                            
	<path d="M25.4634 0.614258H22.9375V48.6058H25.4634V0.614258Z" fill="#0078D4"></path>
	<path d="M19.5696 7.77051H0.20459V27.1355H19.5696V7.77051Z" fill="#0078D4"></path>
	<path d="M38.5136 27.1355C33.1671 27.1355 28.8311 22.7994 28.8311 17.453C28.8311 12.1066 33.1671 7.77051 38.5136 7.77051C43.86 7.77051 48.1961 12.1066 48.1961 17.453C48.1961 22.7994 43.86 27.1355 38.5136 27.1355Z" fill="#0078D4"></path>
	<path d="M2.73046 36.3975C1.33281 36.3975 0.20459 37.5257 0.20459 38.9233C0.20459 40.321 1.33281 41.4492 2.73046 41.4492C4.12811 41.4492 5.25633 40.321 5.25633 38.9233C5.25633 37.5257 4.12811 36.3975 2.73046 36.3975Z" fill="#0078D4"></path>
	<path d="M9.8872 41.4492C11.2822 41.4492 12.4131 40.3183 12.4131 38.9233C12.4131 37.5283 11.2822 36.3975 9.8872 36.3975C8.4922 36.3975 7.36133 37.5283 7.36133 38.9233C7.36133 40.3183 8.4922 41.4492 9.8872 41.4492Z" fill="#50E6FF"></path>
	<path d="M17.0439 36.3975C15.6463 36.3975 14.5181 37.5257 14.5181 38.9233C14.5181 40.321 15.6463 41.4492 17.0439 41.4492C18.4416 41.4492 19.5698 40.321 19.5698 38.9233C19.5698 37.5257 18.4416 36.3975 17.0439 36.3975Z" fill="#0078D4"></path>
	<path d="M31.3569 36.3975C29.9593 36.3975 28.8311 37.5257 28.8311 38.9233C28.8311 40.321 29.9593 41.4492 31.3569 41.4492C32.7546 41.4492 33.8828 40.321 33.8828 38.9233C33.8828 37.5257 32.7546 36.3975 31.3569 36.3975Z" fill="#0078D4"></path>
	<path d="M38.5137 41.4492C39.9087 41.4492 41.0395 40.3183 41.0395 38.9233C41.0395 37.5283 39.9087 36.3975 38.5137 36.3975C37.1187 36.3975 35.9878 37.5283 35.9878 38.9233C35.9878 40.3183 37.1187 41.4492 38.5137 41.4492Z" fill="#50E6FF"></path>
	<path d="M45.6704 41.4492C47.0654 41.4492 48.1963 40.3183 48.1963 38.9233C48.1963 37.5283 47.0654 36.3975 45.6704 36.3975C44.2754 36.3975 43.1445 37.5283 43.1445 38.9233C43.1445 40.3183 44.2754 41.4492 45.6704 41.4492Z" fill="#50E6FF"></path>
</svg>

<svg xmlns="http://www.w3.org/2000/svg" viewBox="0 0 49 49"><path d="M25.463.614h-2.526v47.992h2.526V.614zM19.57 7.77H.205v19.365H19.57V7.771zM38.514 27.136c-5.347 0-9.683-4.337-9.683-9.683s4.336-9.682 9.683-9.682c5.346 0 9.682 4.336 9.682 9.682s-4.336 9.683-9.682 9.683zM2.73 36.398a2.522 2.522 0 0 0-2.525 2.525A2.522 2.522 0 0 0 2.73 41.45a2.522 2.522 0 0 0 2.526-2.526 2.522 2.522 0 0 0-2.526-2.526z" fill="#0078D4"/><path d="M9.887 41.45a2.526 2.526 0 1 0 0-5.053 2.526 2.526 0 0 0 0 5.052z" fill="#50E6FF"/><path d="M17.044 36.398a2.522 2.522 0 0 0-2.526 2.525 2.522 2.522 0 0 0 2.526 2.526 2.522 2.522 0 0 0 2.526-2.526 2.522 2.522 0 0 0-2.526-2.526zM31.357 36.398a2.522 2.522 0 0 0-2.526 2.525 2.522 2.522 0 0 0 2.526 2.526 2.522 2.522 0 0 0 2.526-2.526 2.522 2.522 0 0 0-2.526-2.526z" fill="#0078D4"/><path d="M38.514 41.45a2.526 2.526 0 1 0 0-5.052 2.526 2.526 0 0 0 0 5.051zM45.67 41.45a2.526 2.526 0 1 0 0-5.053 2.526 2.526 0 0 0 0 5.052z" fill="#50E6FF"/></svg>
